X: 41167
T: Tripping To The Well
R: polka
M: 2/4
K: Gmajor
|:G>A BA/G/|EG ED|G>A B/c/d|Bc/B/ A2|
GG/A/ BG|EG ED|BG D/E/F/G/|A2 G2:|
|:dd/B/ GG/A/|B/c/B/G/ ED|dB G/A/B|Bc/B/ AB/c/|
d>B GA|BG ED|B/A/G/E/ D/E/F/G/|A2 G2:|

